!!!ONR: No. 31
!! From Harold Courlander, "Haiti Singing"
!! Chapel Hill: University of North Carolina Press, 1939
!! Copyright University of North Carolina Press
!!!ENC: D. Huron
**kern
*clefG2
*k[]
*M2/4
=1-
4cc
4b
=
4a
4g
=
4e
4c
=
4e
[4a
=
2a]
=
4cc
4b
=
4a
4g
=
4e
4c
=
4c
4A
=
8c
8A
8c
8e
=
4g
4g
=
8c
16A
16A
8c
8e
=
4g
4g
=
4cc
4b
=
4a
4g
=
4e
4c
=
4e
[4a
=
2a]
==
*-
